public/im/ic_im_evaluate.svg

<?xml version="1.0" encoding="UTF-8"?>
<svg width="24px" height="24px" viewBox="0 0 24 24" version="1.1" xmlns="http://www.w3.org/2000/svg" xmlns:xlink="http://www.w3.org/1999/xlink">
    <!-- Generator: Sketch 63.1 (92452) - https://sketch.com -->
    <title>ic_im_evaluate</title>
    <desc>Created with Sketch.</desc>
    <g id="ic_im_evaluate" stroke="none" stroke-width="1" fill="none" fill-rule="evenodd">
        <g id="点赞" fill="#000000" fill-rule="nonzero">
            <rect id="矩形" opacity="0" x="0" y="0" width="24" height="24"></rect>
            <path d="M21.4460495,9.57645297 C20.9582636,8.96879019 20.2281195,8.62028801 19.4429637,8.62028801 L14.9726165,8.62028801 C15.2167455,7.94777676 15.378239,7.21683192 15.4357297,6.5096804 C15.5250941,5.40989242 15.3539205,4.4331299 14.9409788,3.68492324 C14.4326522,2.76444826 13.5673399,2.1903294 12.438373,2.02459258 C11.9269297,1.94948033 11.4870725,2.0466364 11.1309133,2.31319158 C10.4109215,2.85208699 10.2787755,3.87760249 10.1257108,5.06505254 C10.003363,6.01426612 9.86470053,7.09021413 9.39875407,7.86139767 C9.08776108,8.37610321 8.48251469,9.0603245 6.82307476,9.0603245 L5.09138776,9.0603245 C3.93822044,9.0603245 3,9.9869111 3,11.1257948 L3,18.9345297 C3,20.0733434 3.93819683,21 5.09138776,21 L17.7071449,21 C18.28158,21 18.8456267,20.8058045 19.2955183,20.4534534 C19.7455279,20.1009857 20.0653274,19.6026089 20.1961277,19.0502306 L21.9319465,11.7194615 C22.1106754,10.9648633 21.9334812,10.1837658 21.4460495,9.57645297 Z M4.3939437,18.9345531 L4.3939437,11.1258648 C4.3939437,10.7463379 4.70682551,10.4376079 5.09131693,10.4376079 L6.56062425,10.4376079 L6.56062425,19.6228099 L5.09131693,19.6228099 C4.70684912,19.6228099 4.3939437,19.3140799 4.3939437,18.9345531 Z M20.5745985,11.4057862 L18.8387798,18.7367419 C18.7152986,19.2583288 18.2499424,19.6228099 17.7071449,19.6228099 L7.95463878,19.6228099 L7.95463878,10.3377226 C9.13224261,10.1156516 10.0181666,9.52315126 10.595671,8.5673362 C11.2107156,7.54935526 11.3689037,6.32196975 11.5084869,5.23907036 C11.571526,4.74974437 11.6310945,4.28757076 11.7257004,3.93300361 C11.8271532,3.55273034 11.9321712,3.44127496 11.9725918,3.41102012 C12.0188677,3.37637984 12.1066267,3.36821546 12.233484,3.38687689 C12.9326988,3.48951475 13.4181237,3.80279349 13.7171463,4.34448812 C14.3307743,5.45582286 14.0596117,7.33152973 13.4747881,8.61002422 C13.3347798,8.91623494 13.360751,9.2670698 13.5446741,9.54850748 C13.7283612,9.8296419 14.0407235,9.99747813 14.3803557,9.99747813 L19.4429401,9.99747813 C19.8000437,9.99747813 20.1320025,10.1559137 20.35382,10.4322194 C20.5753068,10.708152 20.6558175,11.0629991 20.5745985,11.4057862 Z" id="形状"></path>
        </g>
    </g>
</svg>

<svg xmlns="http://www.w3.org/2000/svg" width="24" height="24" viewBox="0 0 24 24"><title>ic_im_evaluate</title><path fill="#000" fill-rule="nonzero" d="M21.446 9.576a2.554 2.554 0 0 0-2.003-.956h-4.47a8.239 8.239 0 0 0 .463-2.11c.09-1.1-.082-2.077-.495-2.825-.508-.92-1.374-1.495-2.503-1.66-.511-.076-.95.022-1.307.288-.72.54-.852 1.565-1.005 2.752-.123.95-.261 2.025-.727 2.796-.311.515-.916 1.2-2.576 1.2H5.091C3.938 9.06 3 9.986 3 11.125v7.809C3 20.073 3.938 21 5.091 21h12.616c.575 0 1.139-.194 1.589-.547.45-.352.77-.85.9-1.403l1.736-7.33a2.487 2.487 0 0 0-.486-2.144zM4.394 18.935v-7.81c0-.379.313-.687.697-.687h1.47v9.185H5.09a.694.694 0 0 1-.697-.688zm16.18-7.53l-1.735 7.332a1.154 1.154 0 0 1-1.132.886H7.955v-9.285c1.177-.222 2.063-.815 2.64-1.77.616-1.019.774-2.246.913-3.329.064-.49.123-.951.218-1.306.101-.38.206-.492.247-.522.046-.035.134-.043.26-.024.7.103 1.185.416 1.484.957.614 1.112.343 2.988-.242 4.266a.97.97 0 0 0 .07.939.993.993 0 0 0 .835.448h5.063c.357 0 .689.159.91.435.222.276.303.631.222.974z"/></svg>
